build.washingtonpost.com/public/img/components/alertbanner/anatomy.svg

<svg width="400" height="126" viewBox="0 0 400 126" fill="none" xmlns="http://www.w3.org/2000/svg">
<g filter="url(#filter0_d_593_9075)">
<rect width="392" height="40" transform="translate(4 80)" fill="#F2DEDE"/>
<rect width="360" height="28" transform="translate(4 86)" fill="#F2DEDE"/>
<path d="M20 93C18.3827 93.0116 16.8193 93.5829 15.5756 94.6168C14.3319 95.6507 13.4845 97.0833 13.1775 98.6712C12.8706 100.259 13.1229 101.904 13.8918 103.327C14.6606 104.75 15.8984 105.863 17.3948 106.477C18.8913 107.09 20.554 107.167 22.1004 106.693C23.6468 106.219 24.9815 105.225 25.8776 103.878C26.7737 102.532 27.176 100.917 27.016 99.3073C26.856 97.698 26.1436 96.1936 25 95.05C24.344 94.394 23.5641 93.875 22.7058 93.5231C21.8474 93.1711 20.9277 92.9933 20 93ZM20 106C18.6118 106.001 17.2661 105.521 16.1923 104.641C15.1184 103.762 14.3829 102.537 14.1109 101.175C13.839 99.814 14.0475 98.4006 14.701 97.1758C15.3544 95.951 16.4123 94.9907 17.6944 94.4585C18.9766 93.9262 20.4036 93.8551 21.7323 94.2571C23.061 94.6591 24.2092 95.5094 24.9812 96.6632C25.7533 97.8169 26.1014 99.2026 25.9662 100.584C25.831 101.966 25.221 103.258 24.24 104.24C23.1158 105.366 21.5907 105.999 20 106Z" fill="#EA0017"/>
<path d="M17 99.5V100.5H23V99.5H17Z" fill="#EA0017"/>
<path d="M44.656 106V103.984H39.648V101.488H43.232V99.584H39.648V97.36H44.608V95.328H37.056V106H44.656ZM48.5033 106V101.248C48.9513 100.4 49.7513 99.92 50.6953 99.92C50.9033 99.92 51.2553 99.936 51.4153 99.968V97.968C51.2873 97.936 51.0793 97.92 50.8393 97.92C49.6713 97.92 48.7273 98.784 48.3593 99.728V98.064H45.9913V106H48.5033ZM55.0189 106V101.248C55.4669 100.4 56.2669 99.92 57.2109 99.92C57.4189 99.92 57.7709 99.936 57.9309 99.968V97.968C57.8029 97.936 57.5949 97.92 57.3549 97.92C56.1869 97.92 55.2429 98.784 54.8749 99.728V98.064H52.5069V106H55.0189ZM62.5745 106.128C65.0545 106.128 66.7185 104.368 66.7185 102.048C66.7185 99.584 65.0865 97.92 62.6225 97.92C60.2705 97.92 58.5425 99.632 58.5425 102.096C58.5425 104.416 60.2065 106.128 62.5745 106.128ZM62.6545 104.528C61.6625 104.528 61.1825 103.744 61.1825 102.016C61.1825 100.336 61.6945 99.568 62.6385 99.568C63.6145 99.568 64.0625 100.352 64.0625 102.016C64.0625 103.76 63.5665 104.528 62.6545 104.528ZM70.6751 106V101.248C71.1231 100.4 71.9231 99.92 72.8671 99.92C73.0751 99.92 73.4271 99.936 73.5871 99.968V97.968C73.4591 97.936 73.2511 97.92 73.0111 97.92C71.8431 97.92 70.8991 98.784 70.5311 99.728V98.064H68.1631V106H70.6751ZM77.3005 100.56V98.064H74.7085V100.56H77.3005ZM77.3005 106V103.504H74.7085V106H77.3005ZM84.8866 106V96.592L88.3426 106H89.2706L92.7426 96.592V106H94.0066V95.328H92.0546L88.9026 103.808L85.7026 95.328H83.7186V106H84.8866ZM99.5521 106.128C101.12 106.128 102.336 105.312 102.88 103.792L101.792 103.632C101.344 104.8 100.528 105.184 99.6641 105.184C98.1281 105.184 97.2321 104.176 97.2001 102.192H103.024C103.008 102.016 103.024 101.84 103.008 101.664C102.848 99.472 101.648 97.968 99.5841 97.968C97.5521 97.968 95.9361 99.52 95.9361 102.192C95.9361 104.544 97.3921 106.128 99.5521 106.128ZM97.2481 101.344C97.3441 99.856 98.3201 98.912 99.5841 98.912C100.848 98.912 101.632 99.824 101.76 101.344H97.2481ZM107.243 106.128C109.163 106.128 110.411 105.152 110.411 103.696C110.411 102.128 109.035 101.68 107.419 101.36C106.155 101.088 105.211 100.928 105.211 100.064C105.211 99.344 105.931 98.912 106.987 98.912C108.059 98.912 108.779 99.392 109.083 100.224L110.187 99.984C109.787 98.752 108.763 97.968 106.987 97.968C105.227 97.968 104.059 98.848 104.059 100.144C104.059 101.696 105.419 102.112 107.035 102.416C108.203 102.672 109.259 102.864 109.259 103.808C109.259 104.64 108.491 105.2 107.243 105.2C105.883 105.2 105.003 104.576 104.747 103.648L103.627 103.872C104.011 105.312 105.243 106.128 107.243 106.128ZM114.587 106.128C116.507 106.128 117.755 105.152 117.755 103.696C117.755 102.128 116.379 101.68 114.763 101.36C113.499 101.088 112.555 100.928 112.555 100.064C112.555 99.344 113.275 98.912 114.331 98.912C115.403 98.912 116.123 99.392 116.427 100.224L117.531 99.984C117.131 98.752 116.107 97.968 114.331 97.968C112.571 97.968 111.403 98.848 111.403 100.144C111.403 101.696 112.763 102.112 114.379 102.416C115.547 102.672 116.603 102.864 116.603 103.808C116.603 104.64 115.835 105.2 114.587 105.2C113.227 105.2 112.347 104.576 112.091 103.648L110.971 103.872C111.355 105.312 112.587 106.128 114.587 106.128ZM121.322 106.096C122.794 106.096 123.722 105.536 124.346 104.672C124.33 105.072 124.394 105.728 124.49 106H125.674C125.546 105.504 125.498 104.96 125.498 104.464V100.88C125.498 98.896 124.634 97.968 122.394 97.968C120.522 97.968 119.29 98.736 119.002 100.176L120.154 100.304C120.41 99.296 121.082 98.944 122.362 98.944C123.69 98.944 124.202 99.408 124.298 100.272C124.33 100.464 124.33 100.736 124.33 101.008C123.706 101.024 123.178 101.024 122.538 101.104C120.378 101.36 118.81 102.208 118.81 103.92C118.81 105.36 119.93 106.096 121.322 106.096ZM121.69 105.184C120.634 105.184 120.106 104.704 120.106 103.792C120.106 102.8 120.986 102.112 122.698 101.888C123.194 101.824 123.77 101.824 124.33 101.824V103.456C123.994 104.272 123.194 105.184 121.69 105.184ZM130.8 108.976C133.36 108.976 134.656 108.016 134.656 106.64C134.656 105.344 133.76 104.816 131.248 104.768C129.648 104.72 128.656 104.72 128.656 104.016C128.656 103.536 129.104 103.232 129.52 103.232C129.648 103.264 130.16 103.376 130.672 103.376C132.464 103.376 133.552 102.24 133.552 100.672C133.552 99.856 133.248 99.232 132.832 98.864C132.96 98.288 133.296 97.952 134.096 97.968C134.192 97.968 134.272 97.984 134.368 98L134.352 96.96C134.304 96.96 134.208 96.96 134.16 96.96C132.816 96.944 132.384 97.488 132.192 98.352C131.712 98.096 131.136 97.968 130.544 97.968C128.96 97.968 127.6 99.056 127.6 100.672C127.6 101.632 127.984 102.448 128.752 102.848C128.048 103.04 127.504 103.52 127.504 104.192C127.504 104.8 127.824 105.248 128.624 105.472C127.664 105.712 127.088 106.304 127.088 107.088C127.088 108.304 128.368 108.976 130.8 108.976ZM130.608 102.544C129.536 102.544 128.832 101.904 128.832 100.672C128.832 99.68 129.44 98.864 130.608 98.864C131.792 98.864 132.384 99.728 132.384 100.688C132.384 101.872 131.728 102.544 130.608 102.544ZM130.704 108.144C128.944 108.144 128.224 107.696 128.224 106.944C128.224 106.24 128.704 105.92 129.328 105.744C132.88 105.824 133.472 106 133.472 106.8C133.472 107.6 132.464 108.144 130.704 108.144ZM138.755 106.128C140.323 106.128 141.539 105.312 142.083 103.792L140.995 103.632C140.547 104.8 139.731 105.184 138.867 105.184C137.331 105.184 136.435 104.176 136.403 102.192H142.227C142.211 102.016 142.227 101.84 142.211 101.664C142.051 99.472 140.851 97.968 138.787 97.968C136.755 97.968 135.139 99.52 135.139 102.192C135.139 104.544 136.595 106.128 138.755 106.128ZM136.451 101.344C136.547 99.856 137.523 98.912 138.787 98.912C140.051 98.912 140.835 99.824 140.963 101.344H136.451Z" fill="#111111"/>
<rect width="32" height="32" transform="translate(364 84)" fill="#F2DEDE"/>
<path d="M385 95.65L384.35 95L380 99.34L375.65 95L375 95.65L379.34 100L375 104.35L375.65 105L380 100.66L384.35 105L385 104.35L380.66 100L385 95.65Z" fill="#111111"/>
</g>
<rect x="4" width="28" height="28" rx="14" fill="#94538C"/>
<path d="M21.2926 20V18.944H18.9406V9.12H17.9806C17.2926 10.256 16.5406 11.088 15.3726 11.728V13.104C16.8926 12.24 17.2766 11.552 17.6606 11.104V18.944H15.2606V20H21.2926Z" fill="#FCFCFC"/>
<line x1="18.5" y1="28" x2="18.5" y2="90" stroke="#94538C" stroke-dasharray="2 2"/>
<rect x="48" width="28" height="28" rx="14" fill="#94538C"/>
<path d="M65.8319 20V18.88H59.7519C63.7199 16.176 65.5919 14.432 65.5919 12.416C65.5919 10.448 64.2479 9.152 61.9919 9.152C59.7999 9.152 58.4879 10.4 58.1359 12.336L59.3679 12.576C59.5599 11.056 60.5519 10.24 61.9439 10.24C63.5279 10.24 64.2479 11.168 64.2479 12.336C64.2479 14.144 63.1119 15.28 58.1359 18.96V20H65.8319Z" fill="#FCFCFC"/>
<line x1="62.5" y1="28" x2="62.5" y2="90" stroke="#94538C" stroke-dasharray="2 2"/>
<rect x="347" width="28" height="28" rx="14" fill="#94538C"/>
<path d="M363.376 20V17.504H365.088V16.4H363.376V9.12H361.968L356.8 16.48V17.504H362.128V20H363.376ZM362.128 10.576V16.4H357.984L362.128 10.576Z" fill="#FCFCFC"/>
<line x1="361.5" y1="28" x2="361.5" y2="90" stroke="#94538C" stroke-dasharray="2 2"/>
<rect x="235" y="20" width="28" height="28" rx="14" fill="#94538C"/>
<path d="M248.944 40.192C251.472 40.192 252.864 38.832 252.864 37.056C252.864 35.648 251.92 34.688 250.416 34.384C251.728 34.064 252.464 33.136 252.464 31.888C252.464 30.288 251.232 29.136 248.88 29.136C247.12 29.136 245.744 30.016 245.184 31.68L246.384 31.92C246.688 30.88 247.584 30.224 248.912 30.224C250.288 30.224 251.136 30.88 251.136 32.016C251.136 33.248 250.288 33.904 248.64 33.904H247.408V34.992H248.64C250.512 34.992 251.52 35.824 251.52 37.04C251.52 38.208 250.688 39.136 248.912 39.136C247.248 39.136 246.416 38.544 246.048 37.216L244.8 37.456C245.296 39.344 246.72 40.192 248.944 40.192Z" fill="#FCFCFC"/>
<line x1="249.5" y1="48" x2="249.5" y2="80" stroke="#94538C" stroke-dasharray="2 2"/>
<defs>
<filter id="filter0_d_593_9075" x="0" y="78" width="400" height="48" filterUnits="userSpaceOnUse" color-interpolation-filters="sRGB">
<feFlood flood-opacity="0" result="BackgroundImageFix"/>
<feColorMatrix in="SourceAlpha" type="matrix" values="0 0 0 0 0 0 0 0 0 0 0 0 0 0 0 0 0 0 127 0" result="hardAlpha"/>
<feOffset dy="2"/>
<feGaussianBlur stdDeviation="2"/>
<feComposite in2="hardAlpha" operator="out"/>
<feColorMatrix type="matrix" values="0 0 0 0 0.4 0 0 0 0 0.4 0 0 0 0 0.4 0 0 0 0.25 0"/>
<feBlend mode="normal" in2="BackgroundImageFix" result="effect1_dropShadow_593_9075"/>
<feBlend mode="normal" in="SourceGraphic" in2="effect1_dropShadow_593_9075" result="shape"/>
</filter>
</defs>
</svg>

<svg width="400" height="126" viewBox="0 0 400 126" fill="none" xmlns="http://www.w3.org/2000/svg">
    <g filter="url(#hu8e9p8yka)">
        <path fill="#FDE7E7" d="M4 80h392v40H4z"/>
        <path fill="#FDE7E7" d="M4 86h360v28H4z"/>
        <path d="M20 93a7 7 0 1 0 .1 13.999A7 7 0 0 0 20 93zm0 13a6 6 0 1 1-.01-12 6 6 0 0 1 .01 12z" fill="#EA0017"/>
        <path d="M17 99.5v1h6v-1h-6z" fill="#EA0017"/>
        <path d="M44.656 106v-2.016h-5.008v-2.496h3.584v-1.904h-3.584V97.36h4.96v-2.032h-7.552V106h7.6zm3.847 0v-4.752c.448-.848 1.248-1.328 2.192-1.328.208 0 .56.016.72.048v-2a2.658 2.658 0 0 0-.576-.048c-1.168 0-2.112.864-2.48 1.808v-1.664h-2.368V106h2.512zm6.516 0v-4.752c.448-.848 1.248-1.328 2.192-1.328.208 0 .56.016.72.048v-2a2.658 2.658 0 0 0-.576-.048c-1.168 0-2.112.864-2.48 1.808v-1.664h-2.368V106h2.512zm7.556.128c2.48 0 4.144-1.76 4.144-4.08 0-2.464-1.632-4.128-4.096-4.128-2.352 0-4.08 1.712-4.08 4.176 0 2.32 1.663 4.032 4.032 4.032zm.08-1.6c-.992 0-1.473-.784-1.473-2.512 0-1.68.512-2.448 1.456-2.448.977 0 1.425.784 1.425 2.448 0 1.744-.497 2.512-1.409 2.512zm8.02 1.472v-4.752c.448-.848 1.248-1.328 2.192-1.328.208 0 .56.016.72.048v-2a2.658 2.658 0 0 0-.576-.048c-1.168 0-2.112.864-2.48 1.808v-1.664h-2.368V106h2.512zm6.626-5.44v-2.496h-2.593v2.496h2.593zm0 5.44v-2.496h-2.593V106h2.593zm7.586 0v-9.408L88.343 106h.928l3.472-9.408V106h1.264V95.328h-1.952l-3.152 8.48-3.2-8.48h-1.984V106h1.168zm14.665.128c1.568 0 2.784-.816 3.328-2.336l-1.088-.16c-.448 1.168-1.264 1.552-2.128 1.552-1.536 0-2.432-1.008-2.464-2.992h5.824c-.016-.176 0-.352-.016-.528-.16-2.192-1.36-3.696-3.424-3.696-2.032 0-3.648 1.552-3.648 4.224 0 2.352 1.456 3.936 3.616 3.936zm-2.304-4.784c.096-1.488 1.072-2.432 2.336-2.432 1.264 0 2.048.912 2.176 2.432h-4.512zm9.995 4.784c1.92 0 3.168-.976 3.168-2.432 0-1.568-1.376-2.016-2.992-2.336-1.264-.272-2.208-.432-2.208-1.296 0-.72.72-1.152 1.776-1.152 1.072 0 1.792.48 2.096 1.312l1.104-.24c-.4-1.232-1.424-2.016-3.2-2.016-1.76 0-2.928.88-2.928 2.176 0 1.552 1.36 1.968 2.976 2.272 1.168.256 2.224.448 2.224 1.392 0 .832-.768 1.392-2.016 1.392-1.36 0-2.24-.624-2.496-1.552l-1.12.224c.384 1.44 1.616 2.256 3.616 2.256zm7.344 0c1.92 0 3.168-.976 3.168-2.432 0-1.568-1.376-2.016-2.992-2.336-1.264-.272-2.208-.432-2.208-1.296 0-.72.72-1.152 1.776-1.152 1.072 0 1.792.48 2.096 1.312l1.104-.24c-.4-1.232-1.424-2.016-3.2-2.016-1.76 0-2.928.88-2.928 2.176 0 1.552 1.36 1.968 2.976 2.272 1.168.256 2.224.448 2.224 1.392 0 .832-.768 1.392-2.016 1.392-1.36 0-2.24-.624-2.496-1.552l-1.12.224c.384 1.44 1.616 2.256 3.616 2.256zm6.735-.032c1.472 0 2.4-.56 3.024-1.424-.016.4.048 1.056.144 1.328h1.184a6.289 6.289 0 0 1-.176-1.536v-3.584c0-1.984-.864-2.912-3.104-2.912-1.872 0-3.104.768-3.392 2.208l1.152.128c.256-1.008.928-1.36 2.208-1.36 1.328 0 1.84.464 1.936 1.328.032.192.032.464.032.736-.624.016-1.152.016-1.792.096-2.16.256-3.728 1.104-3.728 2.816 0 1.44 1.12 2.176 2.512 2.176zm.368-.912c-1.056 0-1.584-.48-1.584-1.392 0-.992.88-1.68 2.592-1.904.496-.064 1.072-.064 1.632-.064v1.632c-.336.816-1.136 1.728-2.64 1.728zm9.11 3.792c2.56 0 3.856-.96 3.856-2.336 0-1.296-.896-1.824-3.408-1.872-1.6-.048-2.592-.048-2.592-.752 0-.48.448-.784.864-.784.128.032.64.144 1.152.144 1.792 0 2.88-1.136 2.88-2.704 0-.816-.304-1.44-.72-1.808.128-.576.464-.912 1.264-.896.096 0 .176.016.272.032l-.016-1.04h-.192c-1.344-.016-1.776.528-1.968 1.392-.48-.256-1.056-.384-1.648-.384-1.584 0-2.944 1.088-2.944 2.704 0 .96.384 1.776 1.152 2.176-.704.192-1.248.672-1.248 1.344 0 .608.32 1.056 1.12 1.28-.96.24-1.536.832-1.536 1.616 0 1.216 1.28 1.888 3.712 1.888zm-.192-6.432c-1.072 0-1.776-.64-1.776-1.872 0-.992.608-1.808 1.776-1.808 1.184 0 1.776.864 1.776 1.824 0 1.184-.656 1.856-1.776 1.856zm.096 5.6c-1.76 0-2.48-.448-2.48-1.2 0-.704.48-1.024 1.104-1.2 3.552.08 4.144.256 4.144 1.056s-1.008 1.344-2.768 1.344zm8.051-2.016c1.568 0 2.784-.816 3.328-2.336l-1.088-.16c-.448 1.168-1.264 1.552-2.128 1.552-1.536 0-2.432-1.008-2.464-2.992h5.824c-.016-.176 0-.352-.016-.528-.16-2.192-1.36-3.696-3.424-3.696-2.032 0-3.648 1.552-3.648 4.224 0 2.352 1.456 3.936 3.616 3.936zm-2.304-4.784c.096-1.488 1.072-2.432 2.336-2.432 1.264 0 2.048.912 2.176 2.432h-4.512z" fill="#111"/>
        <path fill="#FDE7E7" d="M364 84h32v32h-32z"/>
        <path d="m385 95.65-.65-.65-4.35 4.34-4.35-4.34-.65.65 4.34 4.35-4.34 4.35.65.65 4.35-4.34 4.35 4.34.65-.65-4.34-4.35 4.34-4.35z" fill="#111"/>
    </g>
    <rect x="4" width="28" height="28" rx="14" fill="#94538C"/>
    <path d="M21.293 20v-1.056H18.94V9.12h-.96c-.688 1.136-1.44 1.968-2.608 2.608v1.376c1.52-.864 1.904-1.552 2.288-2v7.84h-2.4V20h6.032z" fill="#FCFCFC"/>
    <path stroke="#94538C" stroke-dasharray="2 2" d="M18.5 28v62"/>
    <rect x="48" width="28" height="28" rx="14" fill="#94538C"/>
    <path d="M65.832 20v-1.12h-6.08c3.968-2.704 5.84-4.448 5.84-6.464 0-1.968-1.344-3.264-3.6-3.264-2.192 0-3.504 1.248-3.856 3.184l1.232.24c.192-1.52 1.184-2.336 2.576-2.336 1.584 0 2.304.928 2.304 2.096 0 1.808-1.136 2.944-6.112 6.624V20h7.696z" fill="#FCFCFC"/>
    <path stroke="#94538C" stroke-dasharray="2 2" d="M62.5 28v62"/>
    <rect x="347" width="28" height="28" rx="14" fill="#94538C"/>
    <path d="M363.376 20v-2.496h1.712V16.4h-1.712V9.12h-1.408l-5.168 7.36v1.024h5.328V20h1.248zm-1.248-9.424V16.4h-4.144l4.144-5.824z" fill="#FCFCFC"/>
    <path stroke="#94538C" stroke-dasharray="2 2" d="M361.5 28v62"/>
    <rect x="235" y="20" width="28" height="28" rx="14" fill="#94538C"/>
    <path d="M248.944 40.192c2.528 0 3.92-1.36 3.92-3.136 0-1.408-.944-2.368-2.448-2.672 1.312-.32 2.048-1.248 2.048-2.496 0-1.6-1.232-2.752-3.584-2.752-1.76 0-3.136.88-3.696 2.544l1.2.24c.304-1.04 1.2-1.696 2.528-1.696 1.376 0 2.224.656 2.224 1.792 0 1.232-.848 1.888-2.496 1.888h-1.232v1.088h1.232c1.872 0 2.88.832 2.88 2.048 0 1.168-.832 2.096-2.608 2.096-1.664 0-2.496-.592-2.864-1.92l-1.248.24c.496 1.888 1.92 2.736 4.144 2.736z" fill="#FCFCFC"/>
    <path stroke="#94538C" stroke-dasharray="2 2" d="M249.5 48v32"/>
    <defs>
        <filter id="hu8e9p8yka" x="0" y="78" width="400" height="48" filterUnits="userSpaceOnUse" color-interpolation-filters="sRGB">
            <feFlood flood-opacity="0" result="BackgroundImageFix"/>
            <feColorMatrix in="SourceAlpha" values="0 0 0 0 0 0 0 0 0 0 0 0 0 0 0 0 0 0 127 0" result="hardAlpha"/>
            <feOffset dy="2"/>
            <feGaussianBlur stdDeviation="2"/>
            <feComposite in2="hardAlpha" operator="out"/>
            <feColorMatrix values="0 0 0 0 0.4 0 0 0 0 0.4 0 0 0 0 0.4 0 0 0 0.25 0"/>
            <feBlend in2="BackgroundImageFix" result="effect1_dropShadow_593_9075"/>
            <feBlend in="SourceGraphic" in2="effect1_dropShadow_593_9075" result="shape"/>
        </filter>
    </defs>
</svg>
